svg/u1f6bc.svg

<svg viewBox="0 0 128 128" xmlns="http://www.w3.org/2000/svg">
  <g>
    <path d="M116,4H12c-4.42,0-8,3.58-8,8v104c0,4.42,3.58,8,8,8h104c4.42,0,8-3.58,8-8V12 C124,7.58,120.42,4,116,4z" fill="#194FA5"/>
    <path d="M109.7,4H11.5C7.37,4.03,4.03,7.37,4,11.5v97.9c-0.01,4.14,3.34,7.49,7.48,7.5c0.01,0,0.01,0,0.02,0 h98.1c4.14,0.01,7.49-3.34,7.5-7.48c0-0.01,0-0.01,0-0.02V11.5c0.09-4.05-3.13-7.41-7.18-7.5C109.85,4,109.77,4,109.7,4z" fill="#2262DD"/>
    <path d="M39.7,12.9c0-2.3-1.6-3-10.8-2.7c-7.7,0.3-11.5,1.2-13.8,4c-1.9,2.3-2.3,5.6-2.6,8.4 c-0.2,2.2-2.2,14.9,3.5,11.2c0.68-0.45,1.23-1.07,1.6-1.8c1.2-2.1,1.9-3.5,3.3-5.6C26.2,17.8,39.7,15.9,39.7,12.9z" fill="#68ABE6"/>
    <g>
      <circle cx="61.99" cy="28" r="15" fill="#FFFFFF"/>
      <path d="M103.3,48.15c-1.87-2.08-5.1-2.23-7.34-0.56l-6.6,4.9c-0.77,0.57-1.78,0.69-2.65,0.31 c-4.31-1.88-10.86-4.72-14.4-6.19c-0.21-0.08-0.54-0.19-0.75-0.27c-2.51-0.74-5.79-1.11-8.45-1.29C62.74,45.01,62.37,45,62,45 s-0.74,0.01-1.11,0.04c-2.66,0.18-5.95,0.55-8.45,1.29c-0.21,0.08-0.54,0.19-0.75,0.27c-3.53,1.47-10.08,4.31-14.39,6.19 c-0.88,0.38-1.89,0.27-2.66-0.31c-1.64-1.22-4.57-3.39-6.6-4.9c-2.25-1.67-5.46-1.51-7.34,0.57c-2.15,2.38-1.74,6.03,0.77,7.9 L31.9,63.8c0.94,0.7,2.04,1.05,3.13,1.05c2.54,0,9.72-2.72,9.72-2.72c0.58-0.19,1.17,0.24,1.17,0.85v5.16c0,0.55,0.45,1,1,1h30.15 c0.55,0,1-0.45,1-1v-5.16c0-0.61,0.59-1.04,1.17-0.85c0,0,7.18,2.72,9.72,2.72c1.09,0,2.19-0.35,3.13-1.05l10.43-7.74 C105.05,54.18,105.45,50.54,103.3,48.15z" fill="#FFFFFF"/>
      <path d="M78.78,77.99l0.56-0.77c0.32-0.44,0.49-0.96,0.49-1.5v-1.66c0-0.88-0.6-1.61-1.4-1.79H45.57 c-0.8,0.18-1.4,0.91-1.4,1.79v1.66c0,0.39,0.09,0.76,0.26,1.11l9.37,12.96c0.67,0.93,1.73,1.47,2.85,1.47h10.7 c1.12,0,2.18-0.55,2.85-1.47l8.6-11.78L78.78,77.99L78.78,77.99z" fill="#FFFFFF"/>
      <path d="M35.99,84.99c-3.32,3.34-3.32,8.73,0.01,12.06l10.07,10.07c2.55,2.55,6.7,2.5,9.19-0.14 c2.4-2.55,2.15-6.62-0.33-9.1l-6.74-6.8l0.77-1c0.35-0.35,0.4-0.9,0.11-1.3l-6.39-8.74c-0.36-0.5-1.08-0.56-1.52-0.12 C41.16,79.92,35.99,84.99,35.99,84.99z" fill="#FFFFFF"/>
      <path d="M88.01,84.99c3.32,3.34,3.32,8.73-0.01,12.06l-10.07,10.07c-2.55,2.55-6.7,2.5-9.19-0.14 c-2.4-2.55-2.15-6.62,0.33-9.1l6.74-6.8l-0.77-1c-0.35-0.35-0.4-0.9-0.11-1.3l6.39-8.74c0.36-0.5,1.08-0.56,1.52-0.12 C82.84,79.92,88.01,84.99,88.01,84.99z" fill="#FFFFFF"/>
    </g>
  </g>
</svg>

<svg viewBox="0 0 128 128" xmlns="http://www.w3.org/2000/svg">
  <defs/>
  <path d="M116,4 L12,4 C7.58,4 4,7.58 4,12 L4,116 C4,120.42 7.58,124 12,124 L116,124 C120.42,124 124,120.42 124,116 L124,12 C124,7.58 120.42,4 116,4 Z" fill="#194FA5"/>
  <path d="M109.7,4 L11.5,4 C7.37,4.03 4.03,7.37 4,11.5 L4,109.4 C3.99,113.54 7.34,116.89 11.48,116.9 C11.49,116.9 11.49,116.9 11.5,116.9 L109.6,116.9 C113.74,116.91 117.09,113.56 117.1,109.42 C117.1,109.41 117.1,109.41 117.1,109.4 L117.1,11.5 C117.19,7.45 113.97,4.09 109.92,4 C109.85,4 109.77,4 109.7,4 Z" fill="#2262DD"/>
  <path d="M39.7,12.9 C39.7,10.6 38.1,9.9 28.9,10.2 C21.2,10.5 17.4,11.4 15.1,14.2 C13.2,16.5 12.8,19.8 12.5,22.6 C12.3,24.8 10.3,37.5 16,33.8 C16.68,33.35 17.23,32.73 17.6,32 C18.8,29.9 19.5,28.5 20.9,26.4 C26.2,17.8 39.7,15.9 39.7,12.9 Z" fill="#68ABE6"/>
  <path d="M76.99,28 A15 15 0 1 1 46.99,28 A15 15 0 1 1 76.99,28 Z" fill="#FFFFFF"/>
  <path d="M103.3,48.15 C101.43,46.07 98.2,45.92 95.96,47.59 L89.36,52.49 C88.59,53.06 87.58,53.18 86.71,52.8 C82.4,50.92 75.85,48.08 72.31,46.61 C72.1,46.53 71.77,46.42 71.56,46.34 C69.05,45.6 65.77,45.23 63.11,45.05 C62.74,45.01 62.37,45 62,45 C61.63,45 61.26,45.01 60.89,45.04 C58.23,45.22 54.94,45.59 52.44,46.33 C52.23,46.41 51.9,46.52 51.69,46.6 C48.16,48.07 41.61,50.91 37.3,52.79 C36.42,53.17 35.41,53.06 34.64,52.48 C33,51.26 30.07,49.09 28.04,47.58 C25.79,45.91 22.58,46.07 20.7,48.15 C18.55,50.53 18.96,54.18 21.47,56.05 L31.9,63.8 C32.84,64.5 33.94,64.85 35.03,64.85 C37.57,64.85 44.75,62.13 44.75,62.13 C45.33,61.94 45.92,62.37 45.92,62.98 L45.92,68.14 C45.92,68.69 46.37,69.14 46.92,69.14 L77.07,69.14 C77.62,69.14 78.07,68.69 78.07,68.14 L78.07,62.98 C78.07,62.37 78.66,61.94 79.24,62.13 C79.24,62.13 86.42,64.85 88.96,64.85 C90.05,64.85 91.15,64.5 92.09,63.8 L102.52,56.06 C105.05,54.18 105.45,50.54 103.3,48.15 Z" fill="#FFFFFF"/>
  <path d="M78.78,77.99 L79.34,77.22 C79.66,76.78 79.83,76.26 79.83,75.72 L79.83,74.06 C79.83,73.18 79.23,72.45 78.43,72.27 L45.57,72.27 C44.77,72.45 44.17,73.18 44.17,74.06 L44.17,75.72 C44.17,76.11 44.26,76.48 44.43,76.83 L53.8,89.79 C54.47,90.72 55.53,91.26 56.65,91.26 L67.35,91.26 C68.47,91.26 69.53,90.71 70.2,89.79 L78.8,78.01 L78.78,77.99 L78.78,77.99 Z" fill="#FFFFFF"/>
  <path d="M35.99,84.99 C32.67,88.33 32.67,93.72 36,97.05 L46.07,107.12 C48.62,109.67 52.77,109.62 55.26,106.98 C57.66,104.43 57.41,100.36 54.93,97.88 L48.19,91.08 L48.96,90.08 C49.31,89.73 49.36,89.18 49.07,88.78 L42.68,80.04 C42.32,79.54 41.6,79.48 41.16,79.92 C41.16,79.92 35.99,84.99 35.99,84.99 Z" fill="#FFFFFF"/>
  <path d="M88.01,84.99 C91.33,88.33 91.33,93.72 88,97.05 L77.93,107.12 C75.38,109.67 71.23,109.62 68.74,106.98 C66.34,104.43 66.59,100.36 69.07,97.88 L75.81,91.08 L75.04,90.08 C74.69,89.73 74.64,89.18 74.93,88.78 L81.32,80.04 C81.68,79.54 82.4,79.48 82.84,79.92 C82.84,79.92 88.01,84.99 88.01,84.99 Z" fill="#FFFFFF"/>
</svg>
